X:1
T:Mrs. C. H. Morris
T:Mrs. C. H. M.
T:In the Blessed By and By
%%score { ( 1 2 ) | ( 3 4 ) }
L:1/8
M:4/4
K:Db
V:1 treble 
V:2 treble 
V:3 bass 
V:4 bass 
V:1
{/x} F>FFG BAAF | G2 F2 G4 | E>EFA cBA>G | (G4 F4) | F>FFG BAAF | G2 F2 G4 | c>BAG GCF>E | D6 z2 | %8
w: Do you of\- ten wear\- y and dis\-|courag\- ed grow|With the bur\- dens you are called to|bear? *|Do you some\- times long de\- liv\- era\-|nce to know|From the sor\- rows and the heart\- aches|here?|
w: Does the jour\- ney oft seem wear\- i\-|some and long|Ere at last you reach the shin\- ing|goal? *||blood- washed throng|In the bless\- ed home\- land of the|soul?|
w: Just a few more toil\- ing days for|you and me,|Till our life's work here on earth be|done; *|Crowd\- ed full of will\- ing ser\- vice|let them be,|Till we hear the Mas\- ter's blest "Well|done."|
"^Chorus" F3 G A3 d | F>=EF>_E F4 | F3 G A3 B | G>FG>F G4 | e>dcB A2 G2 | F>GAd d2 B2 | %14
w: By and by a\-|round the throne we'll sing|End\- less prais\- es|to our Lord and King,|Who in mer\- cy sought us,|And thro' grace has bro't us|
w: ||||||
w: ||||||
 AAdd d2 c2 | d6 z2 |] %16
w: To our Fath\- er's home on|high.|
w: ||
w: ||
V:2
 D>DDE GFFD | C2 =B,2 C4 | C>DEF AGF>D | (E4 D4) | D>DDE GFFD | C2 =B,2 C4 | A>GFE ECC>C | D6 z2 | %8
w: ||||||||
w: ||||Do you some\- times long to join the||||
 D3 E F3 F | D>DD>D D4 | D3 E F3 F | C>=B,C>B, C4 | c>BAG F2 E2 | D>EFF G2 G2 | FFFF =G2 _G2 | %15
w: |||||||
w: |||||||
 F6 z2 |] %16
w: |
w: |
V:3
 A,>A,A,A, CCCA, | A,2 A,2 A,4 | A,>A,A,A, A,A,A,>A, | A,4- A,4 | A,>A,A,A, DDDA, | A,2 A,2 A,4 | %6
w: ||||||
 A,>A,A,A, A,A,A,>G, | F,6 z2 | A,3 A, A,3 A, | A,>=G,A,>G, [D,A,]4 | A,3 A, A,3 A, | %11
w: |||* * * * by,||
 A,>A,A,>A, [E,A,]4 | A,>A,A,A, A,2 A,2 | A,>A,D=B, _B,2 D2 | DDA,A, B,2 A,2 | A,6 z2 |] %16
w: * * * * by,|||||
V:4
 D,>D,D,D, D,D,D,D, | E,2 C,2 E,4 | A,,>A,,A,,A,, A,,A,,A,,>A,, | D,4- D,4 | D,>D,D,D, D,D,D,D, | %5
w: |||||
 E,2 =D,2 E,4 | A,,>A,,A,,A,, A,,A,,A,,>A,, | D,6 z2 | D,2 A,,2 D,2 A,,2 | D,2 A,,2 z A,,B,,C, | %10
w: |||By and by, yes,|by and * * *|
 D,2 A,,2 D,2 A,,2 | E,2 A,,2 z A,,C,E, | A,,>A,,A,,A,, A,,2 A,,2 | D,>D,D,D, G,2 G,2 | %14
w: By and by, yes|by and * * *|||
 A,A,A,A, E,2 A,,2 | D,6 z2 |] %16
w: ||

